X: 3
T: The Wren
R: reel
M: 4/4
L: 1/8
K: Bmin
|: Bf fe/f/ | ge e/d/c/d/ | e/A/c/e/ e/f/e/d/ |1 cc d/c/B/A/ :|2 cB B/A/F/A/ |||: B>A B/c/d/c/ | BB c>d | e/A/c/e/ e/f/e/d/ |1 cc d/c/B/A/ :|2 cB BA |||: Bf fe/f/ | g>f e/f/e/d/ | ce e/f/e/d/ |1 c>c d/c/B/^A/ :|2 c/B/^A/c/ B2 |||: B>A B/c/d/c/ | BB c>d | e/A/c/e/ e/f/e/d/ |1 c>c d/c/B/^A/ :|2 c/B/^A/c/ B2 |||: Bf fe/f/ | gg/e/ e/d/c/d/ | ec fe/d/ |1 c/d/B/c/ dc :|2 c/B/c/d/ B2 |||: BB cd/c/ | BB c>d | ec fe/d/ |1 c/d/B/c/ dc :|2 c/B/c/d/ B2 |||: Ae ed/e/ | ff/e/ d/c/B/c/ | dB ed/c/ |1 B/c/A/B/ cB :|2 B/A/B/c/ A2 |||: AA Bc/B/ | AA B>c | dB ed/c/ |1 B/c/A/B/ cB :|2 B/A/B/c/ A2 ||


Tune 2828	Setting 16038

